public/icons/recycle_icon.svg

<svg width="330" height="330" viewBox="0 0 330 330" fill="none" xmlns="http://www.w3.org/2000/svg">
<path d="M132.412 30.5726C142.573 29.9942 152.857 30.3808 163.034 30.3808C174.801 30.3819 188.751 28.8586 200.137 31.8978C213.741 35.5292 218.29 45.4266 224.655 56.8293C227.874 62.5042 231.125 68.159 234.411 73.7946C239.133 71.1304 246.016 66.0773 251.34 65.2934C252.844 65.072 253.58 65.3835 254.724 66.2998C255.679 67.0646 256.025 68.0212 256.056 69.2172C256.174 73.8825 240.116 124.572 237.769 130.906C237.27 132.248 236.713 133.749 235.668 134.759C234.526 135.865 233.208 135.894 231.698 135.824C223.22 135.432 211.155 131.203 202.624 129.159C192.689 126.778 182.116 125.136 172.428 121.944C170.366 121.265 167.749 120.39 166.335 118.674C165.196 117.291 165.431 115.788 165.589 114.111C169.543 110.007 175.819 107.537 180.819 104.91C175.218 95.8257 170.308 86.3488 164.587 77.319C158.905 86.3552 135.847 128.538 130.908 132.435C129.064 132.535 127.458 132.03 125.752 131.393C118.007 128.505 91.0151 112.524 83.989 107.192C82.0941 105.755 80.3593 104.243 79.3525 102.048C79.9842 95.8722 104.481 53.7869 109.65 45.4986C115.142 36.6924 122.478 32.9031 132.412 30.5726Z" fill="black"/>
<path d="M152.771 39.3067C164.646 39.508 189.4 37.7749 199.624 40.7697C214.203 45.0388 222.863 80.3868 231.75 83.4758C234.883 84.5648 242.358 79.3592 245.284 77.6791C240.914 91.0395 236.84 104.509 232.578 117.905L229.825 126.71C213.35 122.992 196.919 119.086 180.534 114.992C183.761 113.296 190.131 110.879 191.641 107.471C190.1 99.7006 172.056 72.3867 167.394 64.4946C162.458 56.1385 158.013 47.4763 152.771 39.3067Z" fill="#FECE00"/>
<path d="M132.263 40.0992C134.273 39.9297 136.466 39.8746 138.443 40.3333C147.196 42.364 154.447 60.842 159.2 68.3453C149.077 86.6793 137.953 104.635 127.401 122.744C125.335 121.756 123.319 120.54 121.309 119.437C110.508 113.208 99.5711 107.059 89.1729 100.177C89.7981 98.9877 90.4318 97.8034 91.0751 96.6233C96.6823 86.3414 115.036 51.5824 121.283 45.6215C124.415 42.6341 128.186 41.2962 132.263 40.0992Z" fill="#FECE00"/>
<path d="M97.0062 130.852C99.0886 130.829 101.048 131.364 102.693 132.697C106.261 135.587 122.618 190.682 123.516 198.019L123.423 197.829L123.073 199.074L123.421 199.299C123.021 199.711 122.652 200.023 122.104 200.226C117.342 201.98 107.02 194.58 102.471 192.298C98.0437 200.785 93.1911 209.079 88.5123 217.43C97.2203 217.456 146.486 216.262 150.924 218.146C152.417 218.781 154.112 220.45 154.531 222.05C155.6 226.135 155.206 265.889 154.597 271.596C154.349 273.922 153.953 276.335 152.696 278.337C147.414 281.456 122.276 279.915 114.579 279.873C102.169 279.97 88.7423 281.392 77.209 275.996C72.6414 273.859 68.7628 269.503 65.6842 265.61C61.4049 260.2 58.1218 253.914 54.4232 248.094C47.9068 237.841 34.201 218.442 30.4739 207.789C23.7577 188.592 35.2375 177.035 43.0097 160.928C38.2663 157.173 30.7304 154.832 27.2227 149.903C26.9288 148.384 26.7755 147.012 27.751 145.689C30.5947 141.831 87.3222 132.243 97.0062 130.852Z" fill="black"/>
<path d="M95.9219 139.829L96.5906 139.765C98.7122 141.407 110.688 182.154 112.501 187.874C108.847 185.774 103.123 181.416 98.8627 182.534C94.7689 185.869 70.8715 229.871 67.5046 237.354C65.8196 241.097 64.7429 244.599 63.9407 248.625C61.606 245.395 60.2549 241.686 58.7606 238.02C52.4985 227.923 43.5722 216.587 39.2347 205.703C32.1598 187.949 47.6523 174.531 54.0903 159.349L54.3626 158.695C51.1357 154.044 46.8829 152.124 42.0812 149.467C49.225 148.64 56.2236 146.967 63.2889 145.664L95.9219 139.829Z" fill="#FECE00"/>
<path d="M100.108 226.04L146.259 226.011L146.235 271.255L121.194 271.221C109.742 271.304 92.8255 273.222 82.4515 268.218C78.2581 266.195 74.7567 262.99 73.3345 258.431C69.8055 247.12 78.5856 235.687 83.347 226.091L100.108 226.04Z" fill="#FECE00"/>
<path d="M264.886 128.847C266.499 129.096 267.995 129.475 269.148 130.707C272.708 134.51 297.504 177.641 300.271 183.83C301.925 187.53 303.678 192.249 303.653 196.353C303.618 202.058 302.214 208.374 300.099 213.663C296.443 222.806 290.478 231.364 285.63 239.94C281.277 247.641 277.399 255.872 272.517 263.237C270.689 266.034 268.572 268.63 266.2 270.984C263.951 273.186 261.344 275.338 258.485 276.696C247.533 281.898 228.144 279.749 215.781 279.64C215.857 283.431 217.074 295.151 214.639 297.655C213.642 298.681 212.473 299.091 211.052 298.983C204.382 298.474 186.142 276.016 180.897 270.243C176.191 265.457 165.974 256.794 163.508 251.024C162.869 249.53 163.303 248.273 163.91 246.841C166.036 241.825 199.51 205.731 205.288 200.45C207.139 198.759 208.962 197.367 211.286 196.393C212.575 196.569 213.293 196.774 214.195 197.782C217.275 201.221 215.893 212.211 215.81 216.688L246.667 216.687L227.68 184.561C224.29 178.804 220.122 172.814 217.56 166.656C216.623 164.406 216.039 162.154 216.541 159.732C219.934 155.103 257.53 132.441 264.886 128.847Z" fill="black"/>
<path d="M206.487 212.212C207.078 213.051 206.946 213.013 206.923 213.967C206.841 217.24 206.055 221.612 208.526 224.111C210.59 226.199 274.664 225.27 283.611 225.246C277.704 235.62 267.482 256.89 259.706 264.56C252.743 271.43 244.508 270.507 235.421 270.426C228.71 270.537 221.964 269.836 215.29 270.031C212.95 270.099 210.264 270.752 208.712 272.64C205.814 276.164 206.898 281.234 207.262 285.413C195.449 273.479 184.293 260.746 172.808 248.482C184.324 236.7 195.318 224.327 206.487 212.212Z" fill="#FECE00"/>
<path d="M263.922 139.052C268.204 144.179 292.439 186.538 293.718 191.822C295.1 197.533 294.197 204.336 291.055 209.338C283.682 221.077 269.197 214.73 258.213 217.521L257.577 217.689C252.979 210.811 248.977 203.347 244.784 196.208C238.202 185.148 231.738 174.016 225.393 162.818L263.922 139.052Z" fill="#FECE00"/>
</svg>

<svg xmlns="http://www.w3.org/2000/svg" width="330" height="330" fill="none" viewBox="0 0 330 330"><path fill="#000" d="M132.412 30.573c10.161-.579 20.445-.192 30.622-.192 11.767 0 25.717-1.522 37.103 1.517 13.604 3.631 18.153 13.529 24.518 24.931q4.828 8.512 9.756 16.966c4.722-2.665 11.605-7.718 16.929-8.502 1.504-.221 2.24.09 3.384 1.007.955.765 1.301 1.721 1.332 2.917.118 4.665-15.94 55.355-18.287 61.689-.499 1.342-1.056 2.843-2.101 3.853-1.142 1.106-2.46 1.135-3.97 1.065-8.478-.392-20.543-4.621-29.074-6.665-9.935-2.381-20.508-4.023-30.196-7.215-2.062-.679-4.679-1.554-6.093-3.27-1.139-1.383-.904-2.886-.746-4.563 3.954-4.104 10.23-6.574 15.23-9.201-5.601-9.084-10.511-18.561-16.232-27.591-5.682 9.036-28.74 51.219-33.679 55.116-1.844.1-3.45-.405-5.156-1.042-7.745-2.888-34.737-18.869-41.763-24.201-1.895-1.437-3.63-2.949-4.636-5.144.631-6.176 25.128-48.261 30.297-56.55 5.492-8.806 12.828-12.595 22.762-14.925"/><path fill="#fece00" d="M152.771 39.307c11.875.201 36.629-1.532 46.853 1.463 14.579 4.269 23.239 39.617 32.126 42.706 3.133 1.089 10.608-4.117 13.534-5.797-4.37 13.36-8.444 26.83-12.706 40.226l-2.753 8.805a2213 2213 0 0 1-49.291-11.718c3.227-1.696 9.597-4.113 11.107-7.521-1.541-7.77-19.585-35.084-24.247-42.976-4.936-8.357-9.381-17.019-14.623-25.188m-20.508.793c2.01-.17 4.203-.225 6.18.233 8.753 2.031 16.004 20.509 20.757 28.012-10.123 18.334-21.247 36.29-31.799 54.399-2.066-.988-4.082-2.204-6.092-3.307-10.801-6.229-21.738-12.378-32.136-19.26q.938-1.784 1.902-3.554c5.607-10.282 23.961-45.04 30.208-51.002 3.132-2.987 6.903-4.325 10.98-5.522"/><path fill="#000" d="M97.006 130.852c2.083-.023 4.042.512 5.687 1.845 3.568 2.89 19.925 57.985 20.823 65.322l-.093-.19-.35 1.245.348.225c-.4.412-.769.724-1.317.927-4.762 1.754-15.084-5.646-19.633-7.928-4.427 8.487-9.28 16.781-13.959 25.132 8.708.026 57.974-1.168 62.412.716 1.493.635 3.188 2.304 3.607 3.904 1.069 4.085.675 43.839.066 49.546-.248 2.326-.644 4.739-1.901 6.741-5.282 3.119-30.42 1.578-38.117 1.536-12.41.097-25.837 1.519-37.37-3.877-4.568-2.137-8.446-6.493-11.525-10.386-4.28-5.41-7.562-11.696-11.26-17.516-6.517-10.253-20.223-29.652-23.95-40.305-6.716-19.197 4.763-30.754 12.536-46.861-4.744-3.755-12.28-6.096-15.787-11.025-.294-1.519-.447-2.891.528-4.214 2.844-3.858 59.571-13.446 69.255-14.837"/><path fill="#fece00" d="m95.922 139.829.669-.064c2.121 1.642 14.097 42.389 15.91 48.109-3.654-2.1-9.378-6.458-13.638-5.34-4.094 3.335-27.992 47.337-31.358 54.82-1.685 3.743-2.762 7.245-3.564 11.271-2.335-3.23-3.686-6.939-5.18-10.605-6.263-10.097-15.189-21.433-19.526-32.317-7.075-17.754 8.417-31.172 14.855-46.354l.273-.654c-3.227-4.651-7.48-6.571-12.282-9.228 7.144-.827 14.143-2.5 21.208-3.803zm4.186 86.211 46.151-.029-.024 45.244-25.041-.034c-11.452.083-28.368 2.001-38.743-3.003-4.193-2.023-7.694-5.228-9.116-9.787-3.53-11.311 5.25-22.744 10.012-32.34z"/><path fill="#000" d="M264.886 128.847c1.613.249 3.109.628 4.262 1.86 3.56 3.803 28.356 46.934 31.123 53.123 1.654 3.7 3.407 8.419 3.382 12.523-.035 5.705-1.439 12.021-3.554 17.31-3.656 9.143-9.621 17.701-14.469 26.277-4.353 7.701-8.231 15.932-13.113 23.297a47.6 47.6 0 0 1-6.317 7.747c-2.249 2.202-4.856 4.354-7.715 5.712-10.952 5.202-30.341 3.053-42.704 2.944.076 3.791 1.293 15.511-1.142 18.015-.997 1.026-2.166 1.436-3.587 1.328-6.67-.509-24.91-22.967-30.155-28.74-4.706-4.786-14.923-13.449-17.389-19.219-.639-1.494-.205-2.751.402-4.183 2.126-5.016 35.6-41.11 41.378-46.391 1.851-1.691 3.674-3.083 5.998-4.057 1.289.176 2.007.381 2.909 1.389 3.08 3.439 1.698 14.429 1.615 18.906l30.857-.001-18.987-32.126c-3.39-5.757-7.558-11.747-10.12-17.905-.937-2.25-1.521-4.502-1.019-6.924 3.393-4.629 40.989-27.291 48.345-30.885"/><path fill="#fece00" d="M206.487 212.212c.591.839.459.801.436 1.755-.082 3.273-.868 7.645 1.603 10.144 2.064 2.088 66.138 1.159 75.085 1.135-5.907 10.374-16.129 31.644-23.905 39.314-6.963 6.87-15.198 5.947-24.285 5.866-6.711.111-13.457-.59-20.131-.395-2.34.068-5.026.721-6.578 2.609-2.898 3.524-1.814 8.594-1.45 12.773-11.813-11.934-22.969-24.667-34.454-36.931 11.516-11.782 22.51-24.155 33.679-36.27m57.435-73.16c4.282 5.127 28.517 47.486 29.796 52.77 1.382 5.711.479 12.514-2.663 17.516-7.373 11.739-21.858 5.392-32.842 8.183l-.636.168c-4.598-6.878-8.6-14.342-12.793-21.481a1812 1812 0 0 1-19.391-33.39z"/></svg>
